app/dist/common/images/nkarta.svg

<svg height="18" viewBox="0 0 18 18" width="18" xmlns="http://www.w3.org/2000/svg"><path d="m0 0h18v18h-18z" fill="#f0f3fa"/><path d="m11 11.74v1.26h-1v-9h1v6.05l2.71-4.05h1.13l-2.48 3.7 2.64 3.3h-1.29l-1.93-2.4zm-7-2.74v4h-1v-7h1v1.15a2.42 2.42 0 0 1 2.07-1.15c1.72-.02 3 1.53 2.93 3.13v3.87h-1v-3.88c.05-1.17-.78-2.17-2.03-2.12a1.88 1.88 0 0 0 -1.97 2z" fill="#185f7f"/></svg>

<!-- by TradingView --><svg xmlns="http://www.w3.org/2000/svg" width="18" height="18" viewBox="0 0 18 18"><path fill="#F0F3FA" d="M0 0h18v18H0z"/><path d="M11 11.74V13h-1V4h1v6.05L13.71 6h1.13l-2.48 3.7L15 13h-1.29l-1.93-2.4-.78 1.14ZM4 9V13H3V6h1v1.15A2.42 2.42 0 0 1 6.07 6c1.72-.02 3 1.53 2.93 3.13V13H8V9.12C8.05 7.95 7.22 6.95 5.97 7A1.88 1.88 0 0 0 4 9Z" fill="#185F7F"/></svg>
